svg/blobs-icons/no-decorations/deviantart.svg

<svg xmlns="http://www.w3.org/2000/svg" xmlns:xlink="http://www.w3.org/1999/xlink" preserveAspectRatio="xMidYMid" width="216" height="132" viewBox="0 0 216 132"><defs><style>.cls-3{fill:#0cb04a}.cls-4{fill:#000;opacity:.35}</style></defs><g id="group-140svg"><path d="M134.146 131.809s80.971.0 80.971.0C215.296 125.958 215.573 116.839 215.554 115.692 213.682 59.137 167.236 14.801 109.819 14.801H109.809 109.799C108.532 15.068 107.156 14.811 106.017 14.068 104.591 13.138 103.73 11.543 103.73 9.831V.01s-20.278.0-20.278.0.0 13.969.0 13.969C83.452 16.187 82.016 18.148 79.908 18.811 42.214 30.692 3.036 67.513 1.084 114.909 1.045 115.939.421 125.541.015 131.809H103.73s0-93.712.0-93.712c0-2.801 2.267-5.07 5.06999999999999-5.07 33.555.0 76.516 29.773 84.506 72.506C193.583 107.018 193.187 108.542 192.226 109.7 191.266 110.86 189.83 111.533 188.325 111.533H159.493C156.691 111.533 154.424 109.266 154.424 106.463V88.622c-6.881-5.495-13.665-10.019-20.278-13.516v56.703zM78.383 111.533s-49.685.0-49.685.0C27.194 111.533 25.767 110.869 24.807 109.71 23.847 108.562 23.442 107.037 23.708 105.561 29.639 72.78 55.66 49.375 76.145 39.285 77.709 38.493 79.581 38.602 81.056 39.524c1.495.93 2.396 2.553 2.396 4.306v62.633C83.452 109.266 81.185 111.533 78.383 111.533z" id="path-1" class="cls-3" fill-rule="evenodd"/><path d="M99.353 33.027C96.55 33.027 94.283 35.296 94.283 38.097v93.712s9.447.0 9.447.0.0-93.712.0-93.712C103.73 36.056 104.95 34.324 106.687 33.52 104.207 33.221 101.752 33.027 99.353 33.027z" id="path-2" class="cls-4" fill-rule="evenodd"/><path d="M71.61 39.524C70.134 38.602 68.263 38.493 66.699 39.285c-20.486 10.09-46.507 33.494-52.437 66.276C13.995 107.037 14.4 108.562 15.36 109.711 16.321 110.869 17.747 111.533 19.252 111.533h9.446c-1.504.0-2.931-.664000000000002-3.891-1.822C23.847 108.562 23.442 107.037 23.708 105.561c5.636-31.148 29.4-53.806 49.329-64.644C72.652 40.377 72.193 39.887 71.61 39.524z" id="path-3" class="cls-4" fill-rule="evenodd"/><path d="M109.819 14.801S109.809 14.801 109.809 14.801H109.799C108.532 15.068 107.155 14.811 106.017 14.068 104.591 13.138 103.73 11.543 103.73 9.831V.01s-9.447.0-9.447.0.0 9.821.0 9.821C94.283 11.543 95.145 13.138 96.571 14.068 97.709 14.811 99.085 15.068 100.352 14.801H100.363S100.372 14.801 100.372 14.801c57.418.0 103.863 44.336 105.736 100.891C206.126 116.839 205.849 125.958 205.671 131.809h9.446C215.296 125.958 215.573 116.839 215.554 115.692 213.682 59.137 167.236 14.801 109.819 14.801z" id="path-4" class="cls-4" fill-rule="evenodd"/><path d="M150.047 111.533s9.446.0 9.446.0C156.691 111.533 154.424 109.266 154.424 106.463V88.622c-6.881-5.495-13.665-10.019-20.277-13.516V80.74C137.723 83.096 141.335 85.713 144.977 88.622v17.841C144.977 109.266 147.244 111.533 150.047 111.533z" id="path-5" class="cls-4" fill-rule="evenodd"/></g></svg>

<svg xmlns="http://www.w3.org/2000/svg" xmlns:xlink="http://www.w3.org/1999/xlink" preserveAspectRatio="xMidYMid" width="216" height="132" viewBox="0 0 216 132">
  <defs>
    <style>

      .cls-3 {
        fill: #0cb04a;
      }

      .cls-4 {
        fill: #000000;
        opacity: 0.35;
      }
    </style>
  </defs>
  <g id="group-140svg">
    <path d="M134.146,131.809 C134.146,131.809 215.117,131.809 215.117,131.809 C215.296,125.958 215.573,116.839 215.554,115.692 C213.682,59.137 167.236,14.801 109.819,14.801 C109.819,14.801 109.809,14.801 109.809,14.801 C109.799,14.801 109.799,14.801 109.799,14.801 C108.532,15.068 107.156,14.811 106.017,14.068 C104.591,13.138 103.730,11.543 103.730,9.831 C103.730,9.831 103.730,0.010 103.730,0.010 C103.730,0.010 83.452,0.010 83.452,0.010 C83.452,0.010 83.452,13.979 83.452,13.979 C83.452,16.187 82.016,18.148 79.908,18.811 C42.214,30.692 3.036,67.513 1.084,114.909 C1.045,115.939 0.421,125.541 0.015,131.809 C0.015,131.809 103.730,131.809 103.730,131.809 C103.730,131.809 103.730,38.097 103.730,38.097 C103.730,35.296 105.997,33.027 108.800,33.027 C142.355,33.027 185.316,62.800 193.306,105.533 C193.583,107.018 193.187,108.542 192.226,109.700 C191.266,110.860 189.830,111.533 188.325,111.533 C188.325,111.533 159.493,111.533 159.493,111.533 C156.691,111.533 154.424,109.266 154.424,106.463 C154.424,106.463 154.424,88.622 154.424,88.622 C147.543,83.127 140.759,78.603 134.146,75.106 C134.146,75.106 134.146,131.809 134.146,131.809 ZM78.383,111.533 C78.383,111.533 28.698,111.533 28.698,111.533 C27.194,111.533 25.767,110.869 24.807,109.710 C23.847,108.562 23.442,107.037 23.708,105.561 C29.639,72.780 55.660,49.375 76.145,39.285 C77.709,38.493 79.581,38.602 81.056,39.524 C82.551,40.454 83.452,42.077 83.452,43.830 C83.452,43.830 83.452,106.463 83.452,106.463 C83.452,109.266 81.185,111.533 78.383,111.533 Z" id="path-1" class="cls-3" fill-rule="evenodd"/>
    <path d="M99.353,33.027 C96.550,33.027 94.283,35.296 94.283,38.097 C94.283,38.097 94.283,131.809 94.283,131.809 C94.283,131.809 103.730,131.809 103.730,131.809 C103.730,131.809 103.730,38.097 103.730,38.097 C103.730,36.056 104.950,34.324 106.687,33.520 C104.207,33.221 101.752,33.027 99.353,33.027 Z" id="path-2" class="cls-4" fill-rule="evenodd"/>
    <path d="M71.610,39.524 C70.134,38.602 68.263,38.493 66.699,39.285 C46.213,49.375 20.192,72.779 14.262,105.561 C13.995,107.037 14.400,108.562 15.360,109.711 C16.321,110.869 17.747,111.533 19.252,111.533 C19.252,111.533 28.698,111.533 28.698,111.533 C27.194,111.533 25.767,110.869 24.807,109.711 C23.847,108.562 23.442,107.037 23.708,105.561 C29.344,74.413 53.108,51.755 73.037,40.917 C72.652,40.377 72.193,39.887 71.610,39.524 Z" id="path-3" class="cls-4" fill-rule="evenodd"/>
    <path d="M109.819,14.801 C109.819,14.801 109.809,14.801 109.809,14.801 C109.799,14.801 109.799,14.801 109.799,14.801 C108.532,15.068 107.155,14.811 106.017,14.068 C104.591,13.138 103.730,11.543 103.730,9.831 C103.730,9.831 103.730,0.010 103.730,0.010 C103.730,0.010 94.283,0.010 94.283,0.010 C94.283,0.010 94.283,9.831 94.283,9.831 C94.283,11.543 95.145,13.138 96.571,14.068 C97.709,14.811 99.085,15.068 100.352,14.801 C100.352,14.801 100.352,14.801 100.363,14.801 C100.363,14.801 100.372,14.801 100.372,14.801 C157.790,14.801 204.235,59.137 206.108,115.692 C206.126,116.839 205.849,125.958 205.671,131.809 C205.671,131.809 215.117,131.809 215.117,131.809 C215.296,125.958 215.573,116.839 215.554,115.692 C213.682,59.137 167.236,14.801 109.819,14.801 Z" id="path-4" class="cls-4" fill-rule="evenodd"/>
    <path d="M150.047,111.533 C150.047,111.533 159.493,111.533 159.493,111.533 C156.691,111.533 154.424,109.266 154.424,106.463 C154.424,106.463 154.424,88.622 154.424,88.622 C147.543,83.127 140.759,78.603 134.147,75.106 C134.147,75.106 134.147,80.740 134.147,80.740 C137.723,83.096 141.335,85.713 144.977,88.622 C144.977,88.622 144.977,106.463 144.977,106.463 C144.977,109.266 147.244,111.533 150.047,111.533 Z" id="path-5" class="cls-4" fill-rule="evenodd"/>
  </g>
</svg>
